docs/public/svg/integrations/ionic.svg

<svg height="70" viewBox="0 0 70 70" width="70" xmlns="http://www.w3.org/2000/svg"><path d="m34.9999731 6.99997308c4.5096154 0 8.8307692 1.05 12.8424423 3.12307692l.5248654.2692308-.4575577.3634615c-1.1309039.9019231-2.0192308 2.0730769-2.58475 3.3923077l-.1615385.3634615-.3634615-.175c-3.0825577-1.4673077-6.3806346-2.2076923-9.8-2.2076923-12.6134616 0-22.8711539 10.2576923-22.8711539 22.8711539 0 12.6134615 10.2442308 22.8576923 22.8576923 22.8576923 12.6134616 0 22.8711539-10.2576923 22.8711539-22.8711539 0-3.0288461-.5921731-5.9903846-1.75-8.776923l-.1480769-.3634616.376923-.1346154c1.3461539-.4980769 2.5576923-1.3326923 3.5134616-2.4096153l.3903846-.4442308.2423077.5384615c1.6692308 3.6615385 2.5173077 7.5653846 2.5173077 11.6038462 0 15.4403846-12.5596154 28-28 28s-28.00000002-12.5596154-28.00000002-28 12.55961542-28.00000002 28.00000002-28.00000002zm.0000269 15.23851542c7.0403846 0 12.7615385 5.7211538 12.7615385 12.7615384s-5.7211539 12.7615385-12.7615385 12.7615385-12.7615385-5.7211539-12.7615385-12.7615385 5.7211539-12.7615384 12.7615385-12.7615384zm18.3211-10.5c3.2117885 0 5.8153846 2.6035961 5.8153846 5.8153846 0 3.2117884-2.6035961 5.8153846-5.8153846 5.8153846-3.2116538 0-5.81525-2.6035962-5.81525-5.8153846 0-3.2117885 2.6035962-5.8153846 5.81525-5.8153846z" fill="#5195ff" fill-rule="evenodd"/></svg>

<?xml version="1.0" encoding="UTF-8"?>
<svg width="70px" height="70px" viewBox="0 0 70 70" version="1.1" xmlns="http://www.w3.org/2000/svg" xmlns:xlink="http://www.w3.org/1999/xlink">
    <!-- Generator: Sketch 62 (91390) - https://sketch.com -->
    <title>Icon_Ionic</title>
    <desc>Created with Sketch.</desc>
    <g id="Icon_Ionic" stroke="none" stroke-width="1" fill="none" fill-rule="evenodd">
        <path d="M34.9999731,6.99997308 C39.5095885,6.99997308 43.8307423,8.04997308 47.8424154,10.12305 L47.8424154,10.12305 L48.3672808,10.3922808 L47.9097231,10.7557423 C46.7788192,11.6576654 45.8904923,12.8288192 45.3249731,14.14805 L45.3249731,14.14805 L45.1634346,14.5115115 L44.7999731,14.3365115 C41.7174154,12.8692038 38.4193385,12.1288192 34.9999731,12.1288192 C22.3865115,12.1288192 12.1288192,22.3865115 12.1288192,34.9999731 C12.1288192,47.6134346 22.37305,57.8576654 34.9865115,57.8576654 C47.5999731,57.8576654 57.8576654,47.5999731 57.8576654,34.9865115 C57.8576654,31.9576654 57.2654923,28.9961269 56.1076654,26.2095885 L56.1076654,26.2095885 L55.9595885,25.8461269 L56.3365115,25.7115115 C57.6826654,25.2134346 58.8942038,24.3788192 59.8499731,23.3018962 L59.8499731,23.3018962 L60.2403577,22.8576654 L60.4826654,23.3961269 C62.1518962,27.0576654 62.9999731,30.9615115 62.9999731,34.9999731 C62.9999731,50.4403577 50.4403577,62.9999731 34.9999731,62.9999731 C19.5595885,62.9999731 6.99997308,50.4403577 6.99997308,34.9999731 C6.99997308,19.5595885 19.5595885,6.99997308 34.9999731,6.99997308 Z M35,22.2384885 C42.0403846,22.2384885 47.7615385,27.9596423 47.7615385,35.0000269 C47.7615385,42.0404115 42.0403846,47.7615654 35,47.7615654 C27.9596154,47.7615654 22.2384615,42.0404115 22.2384615,35.0000269 C22.2384615,27.9596423 27.9596154,22.2384885 35,22.2384885 Z M53.3211,11.7384885 C56.5328885,11.7384885 59.1364846,14.3420846 59.1364846,17.5538731 C59.1364846,20.7656615 56.5328885,23.3692577 53.3211,23.3692577 C50.1094462,23.3692577 47.50585,20.7656615 47.50585,17.5538731 C47.50585,14.3420846 50.1094462,11.7384885 53.3211,11.7384885 Z" id="Fill-6" fill="#5195FF"></path>
    </g>
</svg>
